X:66
T:Wonder
Z: id:dc-hornpipe-59
M:C|
L:1/8
K:G Major
(3DEF|GdBG FdAF|GdBG D2GF|EGAB cBAG|Fd^cd ed=cA|!
GdBG FdAF|GdBG D2GF|EGce dBGB|ADFA G2:|!
AG|FAd^c d2AG|FAd^c dfed|^cdef g2fe|d^cde d3=c|!
BcBA ^GBe2|ABAG FAd2|egfe dcBA|G2FA G2:|!

